X:8
T:Bourree mussee
Z:Jack Campin, 2014
F:http://www.campin.me.uk/Music/YoupNannetteD.abc
S:p17, p1000206.jpg
M:3/8
L:1/8
Q:1/4=120
K:G
D|GAB|AGF|E/F/GE|   A2\
D|AAB|A2d|d/c/BA|[1 BG:|\
                 [2 G2||
D|G2D|E2D|G/G/GD|   E2\
D|GGA|BGB|A/G/FA|   G2:|

